dist/assets/icons/twitter.svg

<svg width="22" height="18" viewBox="0 0 22 18" fill="none" xmlns="http://www.w3.org/2000/svg">
<path d="M22 2.38918C21.191 2.73222 20.321 2.96407 19.4081 3.06852C20.3398 2.5346 21.0552 1.68955 21.3922 0.682817C20.5202 1.17718 19.5546 1.53577 18.526 1.72905C17.7032 0.891167 16.5301 0.367432 15.232 0.367432C12.7393 0.367432 10.7189 2.298 10.7189 4.67956C10.7189 5.01766 10.7584 5.34689 10.8357 5.6623C7.0846 5.4827 3.75901 3.76541 1.53295 1.15673C1.14443 1.79333 0.921886 2.53398 0.921886 3.3244C0.921886 4.82069 1.71835 6.14036 2.92973 6.91397C2.18992 6.89187 1.49391 6.6978 0.885376 6.37458C0.88451 6.39275 0.884504 6.41067 0.884504 6.4287C0.884504 8.51842 2.44044 10.2609 4.50492 10.6573C4.12653 10.7559 3.7279 10.808 3.31624 10.808C3.02512 10.808 2.74286 10.7817 2.46681 10.7311C3.04153 12.4443 4.70801 13.6912 6.68333 13.7261C5.13742 14.8829 3.19166 15.5719 1.07697 15.5719C0.712916 15.5719 0.353368 15.5514 0 15.5118C1.99818 16.7353 4.37022 17.449 6.91929 17.449C15.2207 17.449 19.7597 10.8783 19.7597 5.17934C19.7597 4.99246 19.7552 4.80686 19.747 4.62193C20.6285 4.01345 21.3936 3.25416 21.999 2.38921" fill="#5C5C50"/>
</svg>

<svg width="22" height="18" fill="none" xmlns="http://www.w3.org/2000/svg"><path d="M22 2.39a9.354 9.354 0 0 1-2.592.679A4.368 4.368 0 0 0 21.392.683a9.283 9.283 0 0 1-2.866 1.046A4.607 4.607 0 0 0 15.232.367c-2.493 0-4.513 1.931-4.513 4.313 0 .338.04.667.117.982-3.751-.18-7.077-1.897-9.303-4.505a4.145 4.145 0 0 0-.611 2.167c0 1.497.796 2.816 2.008 3.59a4.65 4.65 0 0 1-2.045-.54v.055c0 2.09 1.555 3.832 3.62 4.228a4.71 4.71 0 0 1-2.038.074c.575 1.713 2.241 2.96 4.216 2.995a9.331 9.331 0 0 1-5.606 1.846A9.67 9.67 0 0 1 0 15.512a13.215 13.215 0 0 0 6.92 1.937c8.3 0 12.84-6.57 12.84-12.27 0-.187-.005-.372-.013-.557a8.974 8.974 0 0 0 2.252-2.233" fill="#5C5C50"/></svg>
